cartflows/admin-core/assets/images/optin_step.svg

<svg width="200" height="260" viewBox="0 0 200 260" fill="none" xmlns="http://www.w3.org/2000/svg">
<rect x="0.5" y="1" width="199" height="258" rx="9.5" fill="white" stroke="#EAEAEA"/>
<path d="M0 10.5C0 4.97715 4.47715 0.5 10 0.5H190C195.523 0.5 200 4.97715 200 10.5V28.5H0V10.5Z" fill="#E6EAED"/>
<circle cx="14" cy="14.5" r="4" fill="#FF3B30"/>
<circle cx="27" cy="14.5" r="4" fill="#FFCC00"/>
<circle cx="40" cy="14.5" r="4" fill="#4CD964"/>
<rect x="64" y="10.5" width="107" height="7" rx="1" fill="white"/>
<rect x="113" y="49" width="64" height="92" fill="#F6FAFF"/>
<rect x="125" y="64" width="40" height="4" rx="1" fill="#2271B1"/>
<path d="M120.5 79C120.5 78.7239 120.724 78.5 121 78.5H169C169.276 78.5 169.5 78.7239 169.5 79V83C169.5 83.2761 169.276 83.5 169 83.5H121C120.724 83.5 120.5 83.2761 120.5 83V79Z" fill="white" stroke="#B7CFE2"/>
<path d="M120.5 90C120.5 89.7239 120.724 89.5 121 89.5H169C169.276 89.5 169.5 89.7239 169.5 90V94C169.5 94.2761 169.276 94.5 169 94.5H121C120.724 94.5 120.5 94.2761 120.5 94V90Z" fill="white" stroke="#B7CFE2"/>
<rect x="120.5" y="103.5" width="4" height="4" rx="0.5" fill="white" stroke="#CCDEED"/>
<rect x="130" y="104" width="40" height="3" rx="1" fill="#CCDEED"/>
<rect x="120" y="118" width="50" height="7" rx="2" fill="#2271B1"/>
<rect x="23" y="60" width="80" height="4" rx="1" fill="#E6EAED"/>
<rect x="23.75" y="74.75" width="78.5" height="43.5" fill="white" stroke="#E6EAED" stroke-width="1.5"/>
<path d="M63 88.25C58.168 88.25 54.25 92.168 54.25 97C54.25 101.832 58.168 105.75 63 105.75C67.832 105.75 71.75 101.832 71.75 97C71.75 92.168 67.832 88.25 63 88.25ZM63 104.266C58.9883 104.266 55.7344 101.012 55.7344 97C55.7344 92.9883 58.9883 89.7344 63 89.7344C67.0117 89.7344 70.2656 92.9883 70.2656 97C70.2656 101.012 67.0117 104.266 63 104.266Z" fill="#2271B1"/>
<path d="M67.0508 96.748L61.2676 92.5488C61.2212 92.5148 61.1663 92.4944 61.109 92.4898C61.0516 92.4851 60.9942 92.4965 60.9429 92.5226C60.8917 92.5488 60.8487 92.5886 60.8188 92.6377C60.7889 92.6868 60.7732 92.7433 60.7734 92.8008V101.199C60.7734 101.455 61.0625 101.6 61.2676 101.451L67.0508 97.252C67.0907 97.2232 67.1232 97.1853 67.1457 97.1415C67.1681 97.0977 67.1798 97.0492 67.1798 97C67.1798 96.9508 67.1681 96.9023 67.1457 96.8585C67.1232 96.8147 67.0907 96.7768 67.0508 96.748ZM62.0195 99.3652V94.6348L65.2754 97L62.0195 99.3652Z" fill="#2271B1"/>
<rect x="50" y="156" width="100" height="4" rx="1" fill="#E6EAED"/>
<circle cx="25" cy="175" r="2" fill="#2271B1"/>
<circle cx="25" cy="189" r="2" fill="#2271B1"/>
<circle cx="25" cy="203" r="2" fill="#2271B1"/>
<rect x="35" y="173" width="142" height="4" rx="1" fill="#E6EAED"/>
<rect x="35" y="187" width="100" height="4" rx="1" fill="#E6EAED"/>
<rect x="35" y="201" width="120" height="4" rx="1" fill="#E6EAED"/>
<rect x="23" y="219" width="154" height="20" rx="2" fill="#2271B1"/>
<path d="M94.4417 229.227C94.4417 227.086 93.1122 225.865 91.3767 225.865C89.6317 225.865 88.3117 227.086 88.3117 229.227C88.3117 231.359 89.6317 232.589 91.3767 232.589C93.1122 232.589 94.4417 231.369 94.4417 229.227ZM93.0387 229.227C93.0387 230.614 92.3803 231.365 91.3767 231.365C90.37 231.365 89.7148 230.614 89.7148 229.227C89.7148 227.84 90.37 227.089 91.3767 227.089C92.3803 227.089 93.0387 227.84 93.0387 229.227ZM95.4413 234.341H96.8028V231.714H96.8443C97.0329 232.123 97.4452 232.58 98.2378 232.58C99.3564 232.58 100.229 231.695 100.229 230.052C100.229 228.364 99.318 227.527 98.241 227.527C97.4196 227.527 97.0265 228.016 96.8443 228.415H96.7836V227.591H95.4413V234.341ZM96.774 230.045C96.774 229.17 97.1448 228.61 97.8063 228.61C98.4807 228.61 98.8386 229.195 98.8386 230.045C98.8386 230.902 98.4743 231.496 97.8063 231.496C97.1511 231.496 96.774 230.921 96.774 230.045ZM103.748 227.591H102.824V226.415H101.463V227.591H100.791V228.614H101.463V231.17C101.456 232.132 102.111 232.609 103.099 232.567C103.451 232.554 103.7 232.484 103.837 232.439L103.623 231.426C103.556 231.439 103.412 231.471 103.284 231.471C103.013 231.471 102.824 231.369 102.824 230.991V228.614H103.748V227.591ZM104.635 232.5H105.996V227.591H104.635V232.5ZM105.319 226.958C105.724 226.958 106.057 226.648 106.057 226.268C106.057 225.891 105.724 225.581 105.319 225.581C104.916 225.581 104.583 225.891 104.583 226.268C104.583 226.648 104.916 226.958 105.319 226.958ZM108.448 229.662C108.451 229.029 108.829 228.658 109.378 228.658C109.925 228.658 110.254 229.016 110.251 229.617V232.5H111.612V229.374C111.612 228.23 110.941 227.527 109.918 227.527C109.19 227.527 108.662 227.885 108.442 228.457H108.384V227.591H107.087V232.5H108.448V229.662Z" fill="white"/>
</svg>

<svg width="200" height="260" fill="none" xmlns="http://www.w3.org/2000/svg"><rect x=".5" y="1" width="199" height="258" rx="9.5" fill="#fff" stroke="#EAEAEA"/><path d="M0 10.5C0 4.977 4.477.5 10 .5h180c5.523 0 10 4.477 10 10v18H0v-18Z" fill="#E6EAED"/><circle cx="14" cy="14.5" r="4" fill="#FF3B30"/><circle cx="27" cy="14.5" r="4" fill="#FC0"/><circle cx="40" cy="14.5" r="4" fill="#4CD964"/><rect x="64" y="10.5" width="107" height="7" rx="1" fill="#fff"/><path fill="#F6FAFF" d="M113 49h64v92h-64z"/><rect x="125" y="64" width="40" height="4" rx="1" fill="#2271B1"/><path d="M120.5 79a.5.5 0 0 1 .5-.5h48a.5.5 0 0 1 .5.5v4a.5.5 0 0 1-.5.5h-48a.5.5 0 0 1-.5-.5v-4ZM120.5 90a.5.5 0 0 1 .5-.5h48a.5.5 0 0 1 .5.5v4a.5.5 0 0 1-.5.5h-48a.5.5 0 0 1-.5-.5v-4Z" fill="#fff" stroke="#B7CFE2"/><rect x="120.5" y="103.5" width="4" height="4" rx=".5" fill="#fff" stroke="#CCDEED"/><rect x="130" y="104" width="40" height="3" rx="1" fill="#CCDEED"/><rect x="120" y="118" width="50" height="7" rx="2" fill="#2271B1"/><rect x="23" y="60" width="80" height="4" rx="1" fill="#E6EAED"/><path fill="#fff" stroke="#E6EAED" stroke-width="1.5" d="M23.75 74.75h78.5v43.5h-78.5z"/><path d="M63 88.25a8.75 8.75 0 1 0 .001 17.501A8.75 8.75 0 0 0 63 88.25Zm0 16.016a7.267 7.267 0 0 1 0-14.532 7.267 7.267 0 0 1 0 14.532Z" fill="#2271B1"/><path d="m67.05 96.748-5.782-4.2a.31.31 0 0 0-.495.253v8.398c0 .256.29.401.495.252l5.783-4.199a.312.312 0 0 0 .095-.393.312.312 0 0 0-.095-.111Zm-5.03 2.617v-4.73L65.275 97l-3.256 2.365Z" fill="#2271B1"/><rect x="50" y="156" width="100" height="4" rx="1" fill="#E6EAED"/><circle cx="25" cy="175" r="2" fill="#2271B1"/><circle cx="25" cy="189" r="2" fill="#2271B1"/><circle cx="25" cy="203" r="2" fill="#2271B1"/><rect x="35" y="173" width="142" height="4" rx="1" fill="#E6EAED"/><rect x="35" y="187" width="100" height="4" rx="1" fill="#E6EAED"/><rect x="35" y="201" width="120" height="4" rx="1" fill="#E6EAED"/><rect x="23" y="219" width="154" height="20" rx="2" fill="#2271B1"/><path d="M94.442 229.227c0-2.141-1.33-3.362-3.065-3.362-1.745 0-3.065 1.221-3.065 3.362 0 2.132 1.32 3.362 3.065 3.362 1.735 0 3.065-1.22 3.065-3.362Zm-1.403 0c0 1.387-.659 2.138-1.662 2.138-1.007 0-1.662-.751-1.662-2.138s.655-2.138 1.662-2.138c1.003 0 1.662.751 1.662 2.138Zm2.402 5.114h1.362v-2.627h.041c.189.409.601.866 1.394.866 1.118 0 1.991-.885 1.991-2.528 0-1.688-.911-2.525-1.988-2.525-.821 0-1.215.489-1.397.888h-.06v-.824H95.44v6.75Zm1.333-4.296c0-.875.37-1.435 1.032-1.435.675 0 1.033.585 1.033 1.435 0 .857-.365 1.451-1.033 1.451-.655 0-1.032-.575-1.032-1.451Zm6.974-2.454h-.924v-1.176h-1.361v1.176h-.672v1.023h.672v2.556c-.007.962.648 1.439 1.636 1.397.352-.013.601-.083.738-.128l-.214-1.013c-.067.013-.211.045-.339.045-.271 0-.46-.102-.46-.48v-2.377h.924v-1.023Zm.887 4.909h1.361v-4.909h-1.361v4.909Zm.684-5.542c.405 0 .738-.31.738-.69 0-.377-.333-.687-.738-.687-.403 0-.736.31-.736.687 0 .38.333.69.736.69Zm3.129 2.704c.003-.633.381-1.004.93-1.004.547 0 .876.358.873.959v2.883h1.361v-3.126c0-1.144-.671-1.847-1.694-1.847-.728 0-1.256.358-1.476.93h-.058v-.866h-1.297v4.909h1.361v-2.838Z" fill="#fff"/></svg>
